icons/chevron-double-top.svg

<svg width="24" height="24" viewBox="0 0 24 24" fill="none" xmlns="http://www.w3.org/2000/svg">
<path fill-rule="evenodd" clip-rule="evenodd" d="M12.1007 14.0257C12.1007 14.0257 12.1002 14.026 12.0991 14.0266L12.1007 14.0257ZM12 14.1231L8.88031 17.2428C8.58741 17.5357 8.11254 17.5357 7.81965 17.2428C7.52675 16.9499 7.52675 16.475 7.81965 16.1821L11.0196 12.9821C11.2844 12.7173 11.6423 12.5375 12.0375 12.5375C12.4205 12.5375 12.7804 12.7098 13.022 13.0238L16.1803 16.1821C16.4732 16.475 16.4732 16.9499 16.1803 17.2428C15.8874 17.5357 15.4125 17.5357 15.1196 17.2428L12 14.1231Z" fill="black"/>
<path fill-rule="evenodd" clip-rule="evenodd" d="M12.1007 8.02565C12.1007 8.02569 12.1002 8.02603 12.0991 8.02657L12.1007 8.02565ZM12 8.12314L8.88031 11.2428C8.58741 11.5357 8.11254 11.5357 7.81965 11.2428C7.52675 10.9499 7.52675 10.475 7.81965 10.1821L11.0196 6.98215C11.2844 6.71735 11.6423 6.53748 12.0375 6.53748C12.4205 6.53748 12.7804 6.70978 13.022 7.02381L16.1803 10.1821C16.4732 10.475 16.4732 10.9499 16.1803 11.2428C15.8874 11.5357 15.4125 11.5357 15.1196 11.2428L12 8.12314Z" fill="black"/>
</svg>

<svg xmlns="http://www.w3.org/2000/svg" fill="none" viewBox="0 0 24 24">
  <path fill="#000" fill-rule="evenodd" d="M12.1 14.026Zm-.1.097-3.12 3.12a.75.75 0 1 1-1.06-1.06l3.2-3.2a1.45 1.45 0 0 1 1.018-.446c.383 0 .742.173.984.487l3.158 3.158a.75.75 0 0 1-1.06 1.06L12 14.124Zm.1-6.097Zm-.1.097-3.12 3.12a.75.75 0 1 1-1.06-1.06l3.2-3.2a1.45 1.45 0 0 1 1.018-.446c.383 0 .742.173.984.487l3.158 3.158a.75.75 0 0 1-1.06 1.06L12 8.124Z" clip-rule="evenodd"/>
</svg>
